X:79
T:Happy Go Lucky Clog
R:clog
C:Bruce Osborne - Mar. 1994
Z:abc by bosborne@kos.net
M:2/4
L:1/8
K:Gmaj
D/C/|B,>D G>A|B>c B>F|A>G B,>E|D3 A,/B,/|\
C>B, C>D|F>G F>E|D>E D>C|B,3 D/C/|\
B,>D G>A|B>c B>F|A>G B,>E|D3 A,/B,/|\
C>B, C>D|F>G F>E|(3DFA (3BAF|G2 z||\
B/c/|d>B G>B|(3cdc A>F|G>F G>A|B>c d>B|\
c>e g>e|d>B G>B|A>^c e>^c|d3 B/c/|\
d>B G>B|(3cdc A>F|G>F G>A|B>c d>B|\
c>e g>e|d>B G>B|(3ABA (3DEF|G3||
